src/assets/facebook.svg

<?xml version="1.0" encoding="UTF-8" standalone="no"?>
<svg
   xmlns:dc="http://purl.org/dc/elements/1.1/"
   xmlns:cc="http://creativecommons.org/ns#"
   xmlns:rdf="http://www.w3.org/1999/02/22-rdf-syntax-ns#"
   xmlns:svg="http://www.w3.org/2000/svg"
   xmlns="http://www.w3.org/2000/svg"
   version="1.1"
   id="svg919"
   width="90.708664"
   height="90.705551"
   viewBox="0 0 90.708664 90.705553">
  <metadata
     id="metadata925">
    <rdf:RDF>
      <cc:Work
         rdf:about="">
        <dc:format>image/svg+xml</dc:format>
        <dc:type
           rdf:resource="http://purl.org/dc/dcmitype/StillImage" />
        <dc:title></dc:title>
      </cc:Work>
    </rdf:RDF>
  </metadata>
  <defs
     id="defs923" />
  <path
     style="fill:#000000;stroke-width:0.09255504"
     d="M 45.155113,1.7128925e-4 C 38.721392,0.01807129 32.45663,1.4175713 26.246635,4.2134713 24.798591,4.8653713 20.56176,7.3115713 19.273147,8.2395713 12.933641,12.805371 8.2185624,18.270171 4.8346973,24.974071 3.5009039,27.616471 2.5677677,30.062471 1.6946955,33.204071 0.24684283,38.414071 -0.25050517,43.246171 0.11561084,48.546171 0.49107583,53.981571 1.9428487,59.597471 4.2264914,64.448071 4.5093614,65.048871 4.8206507,65.710871 4.9182137,65.919071 5.3033666,66.740971 7.7893831,70.812171 8.5128111,71.805771 14.037066,79.393471 21.303734,84.880071 30.009621,88.036571 31.496962,88.575871 35.149429,89.571071 36.746254,89.872171 40.749921,90.627071 44.539069,90.865671 48.335924,90.601971 60.34755,89.767871 71.398162,84.341271 79.310902,75.391271 83.143958,71.055771 85.949909,66.338171 87.987804,60.802671 88.565459,59.233571 89.591612,55.488171 89.901903,53.816271 91.666395,44.308671 90.542365,35.261071 86.472031,26.208071 85.851033,24.826971 83.378939,20.544871 82.492389,19.314771 76.998951,11.692371 70.235217,6.4072713 61.684864,3.0561713 59.795547,2.3156713 55.29929,1.0447713 53.403448,0.71537129 50.618146,0.23147129 47.871574,-0.00732871 45.155113,1.7128925e-4 Z M 46.533948,19.073871 H 51.295335 56.056722 V 23.224971 27.376271 L 53.150865,27.377071 50.245008,27.377971 49.694016,27.531071 49.142888,27.683971 48.689378,28.147971 48.236003,28.611771 48.070597,29.268571 47.90519,29.925271 V 32.952971 35.980771 H 51.972144 56.038961 L 56.110276,36.095971 56.181455,36.211371 55.76333,40.302371 55.345205,44.393171 55.239183,44.564671 55.133296,44.736171 H 51.519175 47.90519 V 57.869071 71.002171 H 42.87346 37.841593 L 37.740994,70.901571 37.640259,70.800971 V 57.768471 44.736171 H 35.074026 32.507793 V 40.358471 35.980771 H 35.058435 37.60894 L 37.677679,31.791771 37.746417,27.602671 38.062858,26.439771 38.379163,25.277071 38.951711,24.100171 39.52426,22.923171 40.582452,21.849171 41.640643,20.775071 42.92376,20.160871 44.206876,19.546571 45.370412,19.310171 Z"
     id="path1472" />
</svg>

<svg xmlns="http://www.w3.org/2000/svg" width="90.709" height="90.706"><path style="fill:#000;stroke-width:.09255504" d="M45.155 0c-6.434.018-12.698 1.418-18.908 4.213-1.448.652-5.685 3.099-6.974 4.027-6.34 4.565-11.054 10.03-14.438 16.734-1.334 2.642-2.267 5.088-3.14 8.23C.247 38.414-.251 43.246.115 48.546c.376 5.436 1.828 11.051 4.111 15.902l.692 1.471c.385.822 2.871 4.893 3.595 5.887 5.524 7.587 12.79 13.074 21.497 16.23 1.487.54 5.14 1.535 6.736 1.836 4.004.755 7.793.994 11.59.73 12.012-.834 23.062-6.26 30.975-15.21 3.833-4.336 6.639-9.054 8.677-14.59.577-1.568 1.604-5.314 1.914-6.986 1.764-9.507.64-18.555-3.43-27.608-.621-1.381-3.093-5.663-3.98-6.893C77 11.692 70.235 6.407 61.685 3.056c-1.89-.74-6.386-2.011-8.282-2.34A47.332 47.332 0 0 0 45.155 0zm1.379 19.074h9.523v8.302l-2.906.001-2.906.001-.551.153-.551.153-.454.464-.453.464-.165.657-.166.656v6.056h8.134l.071.115.071.115-.418 4.091-.418 4.091-.106.172-.106.171h-7.228v26.266H37.842l-.101-.1-.1-.101V44.736h-5.133V35.981h5.1l.07-4.19.068-4.188.317-1.163.316-1.163.573-1.177.572-1.177 1.058-1.074 1.059-1.074 1.283-.614 1.283-.614 1.163-.237z"/></svg>
